X: 78
T: No_3_Song_of_Kesigokiu.krn
N: Derived from No_3_Song_of_Kesigokiu.krn
%%abc-version 2.0
%%abcx-abcm2ps-target-version 5.9.1 (29 Sep 2008)
%%abc-creator hum2abc beta
%%abcx-conversion-date 2019/03/15 08:35:44
%%humdrum-veritas 3357187515
%%humdrum-veritas-data 2559143896
%%linebreak <none>
%%barnumbers 0
L: 1/8
M: 2/4
K: Ab clef=bass
[K:clef=bass][M:2/4]C2D2 ||  
[M:3/4]C2CC CC ||  
[M:2/4]B,3/G,/F,2 | 
F,2F, z | 
C2G,2 ||  
[M:3/4]B,2B,B, B,B, ||  
[M:2/4]A,3/G,/F,2 | 
F,2F, z | 
G,2G,2 ||  
[M:3/4]F,2F,F, E,D, ||  
[M:2/4]C,3/C,/B,,2 | 
C,2C,C, ||  
[M:3/4]C,A,,F,,2z2 ||  
[M:2/4]C,3/C,/B,,2 ||  
[M:3/4]B,,4B,,G,, | 
F,,6 |]  



